X:1
T:[ID 4-46v]
T:[ID 4-46v]
T:Bezeichnung standardisiert: Freut euch des Lebens; Aria Freut euch des Lebens.[weiterer Text] Aria Freut euch des Lebens.
T:Urheber unbekannt Datum in der hier transkribierten schriftlichen Quelle: 1767
C:Urheber unbekannt
C:Datum in der hier transkribierten schriftlichen Quelle: 1767
%%score 1 2
L:1/8
M:6/8
K:G
V:1 treble 
V:2 treble 
V:1
S B3 cBc | d3 g3 | B3 AGA | BdB A3 | d3 g3 | B3 AGA | !fermata!G3 z2 d | d2 d ABc | d2 B G2 d | %9
 d2 d ABc | d2 B G2 d | e2 c g2 e | d2 B g2 d | ded dcB | B3 A3!D.S.! |: x6 | %16
V:2
 B3 cBc | d3 g3 | B3 AGA | BdB A3 | d3 g3 | B3 AGA | !fermata!G3 z2 d | d2 d ABc | d2 B G2 d | %9
 d2 d ABc | d2 B G2 d | e2 c g2 e | d2 B g2 d | ded dcB | B3 A3 |: x6 | %16

